svg/u23e9.svg

<svg viewBox="0 0 128 128" xmlns="http://www.w3.org/2000/svg">
  <path d="M116.46,4.14h-104c-4.42,0-8,3.58-8,8v104c0,4.42,3.58,8,8,8h104c4.42,0,8-3.58,8-8v-104 C124.46,7.72,120.88,4.14,116.46,4.14z" fill="#F77E00"/>
  <path d="M110.16,4.14h-98.2c-4.13,0.03-7.47,3.37-7.5,7.5v97.9c-0.01,4.14,3.34,7.49,7.48,7.5 c0.01,0,0.01,0,0.02,0h98.1c4.14,0.01,7.49-3.34,7.5-7.48c0-0.01,0-0.01,0-0.02v-97.9c0.09-4.05-3.13-7.41-7.18-7.5 C110.31,4.14,110.23,4.14,110.16,4.14z" fill="#FF9800"/>
  <path d="M40.16,13.04c0-2.3-1.6-3-10.8-2.7c-7.7,0.3-11.5,1.2-13.8,4 s-2.9,8.5-3,15.3c0,4.8,0,9.3,2.5,9.3c3.4,0,3.4-7.9,6.2-12.3C26.66,17.94,40.16,16.04,40.16,13.04z" opacity="0.75" fill="#FFBD52" enable-background="new "/>
  <path d="M107.46,62.14l-39.9-25.7c-0.98-0.58-2.24-0.26-2.82,0.72c-0.23,0.39-0.33,0.84-0.28,1.28v22.3 l-37-24.3c-1.4-0.9-3,0.2-3,2v51.4c0,1.8,1.7,2.9,3,2l37-24.4v22.3c-0.13,1.13,0.69,2.15,1.82,2.28c0.45,0.05,0.9-0.05,1.28-0.28 l39.9-25.6c1.1-0.76,1.38-2.28,0.62-3.38C107.91,62.51,107.7,62.3,107.46,62.14z" fill="#FAFAFA"/>
  <path d="M107.36,66.14l-39.8,25.7c-0.35,0.24-0.78,0.34-1.2,0.3 c-0.14,0.01-0.28-0.02-0.4-0.1c-0.1,0-0.2-0.1-0.4-0.2c-0.24-0.11-0.45-0.28-0.6-0.5c-0.12-0.1-0.2-0.24-0.2-0.4 c-0.2-0.33-0.31-0.71-0.3-1.1v-22.4l-3,2l-34,22.4c-0.35,0.24-0.78,0.34-1.2,0.3c-0.14,0.01-0.28-0.02-0.4-0.1 c-0.1,0-0.2-0.1-0.4-0.2c-0.7-0.46-1.12-1.26-1.1-2.1v-51.3c-0.08-1,0.54-1.91,1.5-2.2c0.1,0,0.2-0.1,0.4-0.1 c0.42-0.04,0.85,0.06,1.2,0.3l34,22.4l3,2v-22.4c0-0.42,0.11-0.83,0.3-1.2c0.1-0.1,0.1-0.2,0.2-0.4c0.17-0.2,0.38-0.36,0.6-0.5 c0.1-0.1,0.2-0.1,0.4-0.2s0.3-0.1,0.4-0.1c0.42-0.04,0.85,0.06,1.2,0.3l39.8,25.8c1.1,0.76,1.38,2.28,0.62,3.38 C107.81,65.76,107.6,65.97,107.36,66.14z" opacity="0.2" fill="#FFFFFF" enable-background="new "/>
</svg>

<svg viewBox="0 0 128 128" xmlns="http://www.w3.org/2000/svg">
  <defs/>
  <path d="M116.46,4.14 L12.46,4.14 C8.04,4.14 4.46,7.72 4.46,12.14 L4.46,116.14 C4.46,120.56 8.04,124.14 12.46,124.14 L116.46,124.14 C120.88,124.14 124.46,120.56 124.46,116.14 L124.46,12.14 C124.46,7.72 120.88,4.14 116.46,4.14 Z" fill="#F77E00"/>
  <path d="M110.16,4.14 L11.96,4.14 C7.83,4.17 4.49,7.51 4.46,11.64 L4.46,109.54 C4.45,113.68 7.8,117.03 11.94,117.04 C11.95,117.04 11.95,117.04 11.96,117.04 L110.06,117.04 C114.2,117.05 117.55,113.7 117.56,109.56 C117.56,109.55 117.56,109.55 117.56,109.54 L117.56,11.64 C117.65,7.59 114.43,4.23 110.38,4.14 C110.31,4.14 110.23,4.14 110.16,4.14 Z" fill="#FF9800"/>
  <path d="M40.16,13.04 C40.16,10.74 38.56,10.04 29.36,10.34 C21.66,10.64 17.86,11.54 15.56,14.34 C13.26,17.14 12.66,22.84 12.56,29.64 C12.56,34.44 12.56,38.94 15.06,38.94 C18.46,38.94 18.46,31.04 21.26,26.64 C26.66,17.94 40.16,16.04 40.16,13.04 Z" fill="#FFBD52" opacity="0.75"/>
  <path d="M107.46,62.14 L67.56,36.44 C66.58,35.86 65.32,36.18 64.74,37.16 C64.51,37.55 64.41,38 64.46,38.44 L64.46,60.74 L27.46,36.44 C26.06,35.54 24.46,36.64 24.46,38.44 L24.46,89.84 C24.46,91.64 26.16,92.74 27.46,91.84 L64.46,67.44 L64.46,89.74 C64.33,90.87 65.15,91.89 66.28,92.02 C66.73,92.07 67.18,91.97 67.56,91.74 L107.46,66.14 C108.56,65.38 108.84,63.86 108.08,62.76 C107.91,62.51 107.7,62.3 107.46,62.14 Z" fill="#FAFAFA"/>
  <path d="M107.36,66.14 L67.56,91.84 C67.21,92.08 66.78,92.18 66.36,92.14 C66.22,92.15 66.08,92.12 65.96,92.04 C65.86,92.04 65.76,91.94 65.56,91.84 C65.32,91.73 65.11,91.56 64.96,91.34 C64.84,91.24 64.76,91.1 64.76,90.94 C64.56,90.61 64.45,90.23 64.46,89.84 L64.46,67.44 L61.46,69.44 L27.46,91.84 C27.11,92.08 26.68,92.18 26.26,92.14 C26.12,92.15 25.98,92.12 25.86,92.04 C25.76,92.04 25.66,91.94 25.46,91.84 C24.76,91.38 24.34,90.58 24.36,89.74 L24.36,38.44 C24.28,37.44 24.9,36.53 25.86,36.24 C25.96,36.24 26.06,36.14 26.26,36.14 C26.68,36.1 27.11,36.2 27.46,36.44 L61.46,58.84 L64.46,60.84 L64.46,38.44 C64.46,38.02 64.57,37.61 64.76,37.24 C64.86,37.14 64.86,37.04 64.96,36.84 C65.13,36.64 65.34,36.48 65.56,36.34 C65.66,36.24 65.76,36.24 65.96,36.14 C66.16,36.04 66.26,36.04 66.36,36.04 C66.78,36 67.21,36.1 67.56,36.34 L107.36,62.14 C108.46,62.9 108.74,64.42 107.98,65.52 C107.81,65.76 107.6,65.97 107.36,66.14 Z" fill="#FFFFFF" opacity="0.2"/>
</svg>
